img/beamsplitter.svg

<svg version="1.1" xmlns="http://www.w3.org/2000/svg" xmlns:xlink="http://www.w3.org/1999/xlink" width="100" height="100"><defs/><g><rect fill="black" stroke="none" x="0" y="0" width="100" height="100"/><g/><path fill="none" stroke="rgb(0,255,0)" paint-order="fill stroke markers" d=" M -28.241409599985086 47.82940881178613 L -16.944228140745086 93.21480882137612" stroke-miterlimit="10" stroke-width="4" stroke-dasharray=""/><path fill="none" stroke="rgb(128,128,128)" paint-order="fill stroke markers" d=" M -30.18218830978644 48.312500935072975 L -18.88500685054644 93.69790094466296" stroke-opacity="255" stroke-miterlimit="10" stroke-width="2" stroke-dasharray=""/><path fill="none" stroke="rgb(100,100,168)" paint-order="fill stroke markers" d=" M 34.79677403011173 12.712372231381766 L 88.09970045017086 81.34274959626475" stroke-miterlimit="10" stroke-dasharray=""/><path fill="none" stroke="rgb(255,255,128)" paint-order="fill stroke markers" d=" M -28.97445800156933 53.16444770957636 L 50.79340900576601 33.30889795110831" stroke-miterlimit="10" stroke-dasharray=""/><path fill="none" stroke="rgb(255,255,128)" paint-order="fill stroke markers" d=" M -26.558997385135108 62.86834125858313 L 57.50043220845734 41.94455014341475" stroke-miterlimit="10" stroke-dasharray=""/><path fill="none" stroke="rgb(255,255,128)" paint-order="fill stroke markers" d=" M -24.14353676870089 72.5722348075899 L 64.20745541114867 50.58020233572117" stroke-miterlimit="10" stroke-dasharray=""/><path fill="none" stroke="rgb(255,255,128)" paint-order="fill stroke markers" d=" M -21.728076152266667 82.27612835659667 L 70.91447861383999 59.215854528027606" stroke-miterlimit="10" stroke-dasharray=""/><path fill="none" stroke="rgb(255,255,128)" paint-order="fill stroke markers" d=" M -19.31261553583245 91.98002190560342 L 77.62150181653134 67.85150672033403" stroke-miterlimit="10" stroke-dasharray=""/><path fill="none" stroke="rgb(255,255,128)" paint-order="fill stroke markers" d=" M 50.79340900576601 33.30889795110831 L 2270.489503875913 -519.2104047941757" stroke-miterlimit="10" stroke-opacity="0.5" stroke-dasharray=""/><path fill="none" stroke="rgb(255,255,128)" paint-order="fill stroke markers" d=" M 57.50043220845734 41.94455014341475 L 2292.0848959576074 -514.2807154186039" stroke-miterlimit="10" stroke-opacity="0.5" stroke-dasharray=""/><path fill="none" stroke="rgb(255,255,128)" paint-order="fill stroke markers" d=" M 64.20745541114867 50.58020233572117 L 2313.6802880393006 -509.35102604303313" stroke-miterlimit="10" stroke-opacity="0.5" stroke-dasharray=""/><path fill="none" stroke="rgb(255,255,128)" paint-order="fill stroke markers" d=" M 70.91447861383999 59.215854528027606 L 2335.2756801209944 -504.42133666746184" stroke-miterlimit="10" stroke-opacity="0.5" stroke-dasharray=""/><path fill="none" stroke="rgb(255,255,128)" paint-order="fill stroke markers" d=" M 77.62150181653134 67.85150672033403 L 2356.871072202688 -499.49164729189005" stroke-miterlimit="10" stroke-opacity="0.5" stroke-dasharray=""/><path fill="none" stroke="rgb(255,255,128)" paint-order="fill stroke markers" d=" M 50.79340900576601 33.30889795110831 L -1033.9030388710535 2047.201136739303" stroke-miterlimit="10" stroke-opacity="0.5" stroke-dasharray=""/><path fill="none" stroke="rgb(255,255,128)" paint-order="fill stroke markers" d=" M 57.50043220845734 41.94455014341475 L -1034.4714985036278 2069.3447509462894" stroke-miterlimit="10" stroke-opacity="0.5" stroke-dasharray=""/><path fill="none" stroke="rgb(255,255,128)" paint-order="fill stroke markers" d=" M 64.20745541114867 50.58020233572117 L -1035.039958136202 2091.488365153275" stroke-miterlimit="10" stroke-opacity="0.5" stroke-dasharray=""/><path fill="none" stroke="rgb(255,255,128)" paint-order="fill stroke markers" d=" M 70.91447861383999 59.215854528027606 L -1035.6084177687762 2113.631979360261" stroke-miterlimit="10" stroke-opacity="0.5" stroke-dasharray=""/><path fill="none" stroke="rgb(255,255,128)" paint-order="fill stroke markers" d=" M 77.62150181653134 67.85150672033403 L -1036.1768774013503 2135.7755935672467" stroke-miterlimit="10" stroke-opacity="0.5" stroke-dasharray=""/><path fill="none" stroke="rgb(0,255,0)" paint-order="fill stroke markers" d=" M -28.241409599985086 47.82940881178613 L -16.944228140745086 93.21480882137612" stroke-miterlimit="10" stroke-width="4" stroke-dasharray=""/><path fill="none" stroke="rgb(128,128,128)" paint-order="fill stroke markers" d=" M -30.18218830978644 48.312500935072975 L -18.88500685054644 93.69790094466296" stroke-opacity="255" stroke-miterlimit="10" stroke-width="2" stroke-dasharray=""/><path fill="none" stroke="rgb(100,100,168)" paint-order="fill stroke markers" d=" M 34.79677403011173 12.712372231381766 L 88.09970045017086 81.34274959626475" stroke-miterlimit="10" stroke-dasharray=""/></g></svg>

<svg xmlns="http://www.w3.org/2000/svg" width="100" height="100"><path d="M0 0h100v100H0z"/><path fill="none" stroke="#0F0" paint-order="fill stroke markers" d="m-28.241 47.83 11.297 45.385" stroke-miterlimit="10" stroke-width="4"/><path fill="none" stroke="gray" paint-order="fill stroke markers" d="m-30.182 48.313 11.297 45.385" stroke-opacity="255" stroke-miterlimit="10" stroke-width="2"/><path fill="none" stroke="#6464A8" paint-order="fill stroke markers" d="M34.797 12.712 88.1 81.342" stroke-miterlimit="10"/><path fill="none" stroke="#FFFF80" paint-order="fill stroke markers" d="M-28.974 53.164 50.793 33.31M-26.559 62.868l84.06-20.923M-24.144 72.572 64.207 50.58M-21.728 82.276l92.642-23.06M-19.313 91.98l96.935-24.128" stroke-miterlimit="10"/><path fill="none" stroke="#FFFF80" paint-order="fill stroke markers" d="m50.793 33.309 2219.697-552.52M57.5 41.945l2234.585-556.226M64.207 50.58 2313.68-509.35M70.914 59.216l2264.362-563.637M77.622 67.852l2279.25-567.344M50.793 33.309-1033.903 2047.2M57.5 41.945l-1091.971 2027.4M64.207 50.58-1035.04 2091.488M70.914 59.216l-1106.522 2054.416M77.622 67.852l-1113.799 2067.924" stroke-miterlimit="10" stroke-opacity=".5"/><path fill="none" stroke="#0F0" paint-order="fill stroke markers" d="m-28.241 47.83 11.297 45.385" stroke-miterlimit="10" stroke-width="4"/><path fill="none" stroke="gray" paint-order="fill stroke markers" d="m-30.182 48.313 11.297 45.385" stroke-opacity="255" stroke-miterlimit="10" stroke-width="2"/><path fill="none" stroke="#6464A8" paint-order="fill stroke markers" d="M34.797 12.712 88.1 81.342" stroke-miterlimit="10"/></svg>
